;FLAVOR:Marlin
;TIME:13507
;Filament used: 9.64104m
;Layer height: 0.2
;MINX:67.161
;MINY:81.5
;MINZ:0.2
;MAXX:152.336
;MAXY:138.499
;MAXZ:59.8
;Generated with Cura_SteamEngine 5.3.1
M82 ;absolute extrusion mode
; Ender 3 Custom Start G-code
G92 E0 ; Reset Extruder
G28 ; Home all axes
M104 S175 ; Start heating up the nozzle most of the way
M190 S60 ; Start heating the bed, wait until target temperature reached
M109 S200 ; Finish heating the nozzle
G1 Z2.0 F3000 ; Move Z Axis up little to prevent scratching of Heat Bed
G1 X0.1 Y20 Z0.3 F5000.0 ; Move to start position
G1 X0.1 Y200.0 Z0.3 F1500.0 E15 ; Draw the first line
G1 X0.4 Y200.0 Z0.3 F5000.0 ; Move to side a little
G1 X0.4 Y20 Z0.3 F1500.0 E30 ; Draw the second line
G92 E0 ; Reset Extruder
G1 Z2.0 F3000 ; Move Z Axis up little to prevent scratching of Heat Bed
G1 X5 Y20 Z0.3 F5000.0 ; Move over to prevent blob squish
G92 E0
G92 E0
G1 F1500 E-6.5
;LAYER_COUNT:299
;LAYER:0
M107
G0 F6000 X73.535 Y91.361 Z0.2
;TYPE:SKIRT
G1 F1500 E0
G1 F1200 X74.28 Y90.851 E0.03003
G1 X75.067 Y90.408 E0.06007
G1 X75.89 Y90.036 E0.09011
G1 X76.743 Y89.739 E0.12015
G1 X77.618 Y89.518 E0.15016
G1 X78.789 Y89.348 E0.18952
G1 X79.486 Y89.288 E0.21279
G1 X82.031 Y89.031 E0.29787
G1 X84.558 Y88.704 E0.38261
G1 X87.087 Y88.305 E0.46777
G1 X89.554 Y87.843 E0.55125
G1 X92.078 Y87.296 E0.63715
G1 X94.468 Y86.708 E0.71901
G1 X96.983 Y86.011 E0.80581
G1 X99.403 Y85.267 E0.89002
G1 X101.801 Y84.455 E0.97422
G1 X104.208 Y83.564 E1.05959
G1 X105.65 Y83.003 E1.11105
G1 X106.506 Y82.713 E1.14111
G1 X107.383 Y82.5 E1.17113
G1 X108.276 Y82.366 E1.20116
G1 X109.06 Y82.313 E1.2273
G1 X109.667 Y82.3 E1.24749
G1 X135.63 Y82.3 E2.11103
G1 X136.435 Y82.31 E2.1378
G1 X137.033 Y82.336 E2.15771
G1 X137.865 Y82.4 E2.18547
G1 X138.216 Y82.436 E2.1972
G1 X139.109 Y82.568 E2.22722
G1 X139.657 Y82.69 E2.2459
G1 X140.482 Y82.9 E2.27421
G1 X140.775 Y82.982 E2.28433
G1 X141.633 Y83.264 E2.31437
G1 X142.202 Y83.499 E2.33485
G1 X142.661 Y83.705 E2.35158
G1 X143.212 Y83.966 E2.37186
G1 X144.008 Y84.392 E2.40189
G1 X144.523 Y84.719 E2.42218
G1 X144.982 Y85.03 E2.44062
G1 X145.496 Y85.395 E2.46158
G1 X146.205 Y85.955 E2.49163
G1 X146.63 Y86.345 E2.51082
G1 X147.023 Y86.726 E2.52903
G1 X147.451 Y87.159 E2.54928
G1 X148.051 Y87.834 E2.57931
G1 X148.399 Y88.286 E2.59829
G1 X148.718 Y88.726 E2.61636
G1 X149.076 Y89.245 E2.63733
G1 X149.551 Y90.013 E2.66737
G1 X149.815 Y90.519 E2.68635
G1 X150.052 Y91.006 E2.70436
G1 X150.321 Y91.595 E2.7259
G1 X150.655 Y92.434 E2.75594
G1 X150.826 Y92.977 E2.77487
G1 X151.032 Y93.712 E2.80026
G1 X151.124 Y94.07 E2.81255
G1 X151.31 Y94.954 E2.8426
G1 X151.391 Y95.565 E2.8631
G1 X151.447 Y96.109 E2.88129
G1 X151.497 Y96.73 E2.90201
G1 X151.524 Y97.315 E2.92149
G1 X151.536 Y98.06 E2.94627
G1 X151.536 Y121.92 E3.73986
G1 X151.527 Y122.597 E3.76237
G1 X151.501 Y123.196 E3.78232
G1 X151.437 Y124.028 E3.81007
G1 X151.401 Y124.379 E3.82181
G1 X151.269 Y125.272 E3.85183
G1 X151.147 Y125.82 E3.8705
G1 X151.007 Y126.378 E3.88964
G1 X150.845 Y126.969 E3.91002
G1 X150.56 Y127.826 E3.94006
G1 X150.344 Y128.349 E3.95888
G1 X150.139 Y128.808 E3.9756
G1 X149.871 Y129.375 E3.99646
G1 X149.445 Y130.171 E4.02648
G1 X149.118 Y130.686 E4.04677
G1 X148.807 Y131.145 E4.06522
G1 X148.442 Y131.659 E4.08618
G1 X147.882 Y132.368 E4.11623
G1 X147.494 Y132.791 E4.13532
G1 X147.118 Y133.179 E4.15329
G1 X146.68 Y133.612 E4.17378
G1 X146.006 Y134.212 E4.20379
G1 X145.551 Y134.562 E4.22289
G1 X145.111 Y134.881 E4.24096
G1 X144.592 Y135.239 E4.26193
G1 X143.824 Y135.714 E4.29197
G1 X143.325 Y135.975 E4.3107
G1 X142.845 Y136.209 E4.32846
G1 X142.227 Y136.491 E4.35105
G1 X141.387 Y136.823 E4.38109
G1 X140.859 Y136.989 E4.3995
G1 X140.368 Y137.129 E4.41648
G1 X139.763 Y137.288 E4.43729
G1 X138.879 Y137.474 E4.46733
G1 X138.272 Y137.554 E4.4877
G1 X137.428 Y137.637 E4.5159
G1 X137.1 Y137.661 E4.52684
G1 X136.517 Y137.687 E4.54625
G1 X135.755 Y137.699 E4.5716
G1 X109.898 Y137.699 E5.43161
G1 X109.2 Y137.689 E5.45483
G1 X108.298 Y137.636 E5.48488
G1 X107.405 Y137.504 E5.5149
G1 X106.169 Y137.183 E5.55738
G1 X105.716 Y137.032 E5.57326
G1 X103.536 Y136.263 E5.65014
G1 X101.15 Y135.497 E5.73349
G1 X98.714 Y134.79 E5.81786
G1 X96.273 Y134.157 E5.90173
G1 X93.749 Y133.578 E5.98786
G1 X91.28 Y133.084 E6.07161
G1 X88.778 Y132.656 E6.15603
G1 X86.252 Y132.298 E6.24089
G1 X83.765 Y132.017 E6.32413
G1 X81.212 Y131.801 E6.40935
G1 X79.585 Y131.709 E6.46355
G1 X78.944 Y131.664 E6.48492
G1 X78.047 Y131.56 E6.51495
G1 X77.162 Y131.376 E6.54502
G1 X76.298 Y131.116 E6.57503
G1 X75.46 Y130.78 E6.60506
G1 X74.654 Y130.371 E6.63512
G1 X73.889 Y129.892 E6.66514
G1 X73.168 Y129.347 E6.6952
G1 X72.499 Y128.741 E6.72522
G1 X71.885 Y128.078 E6.75528
G1 X71.333 Y127.364 E6.78529
G1 X70.846 Y126.603 E6.81534
G1 X70.428 Y125.802 E6.8454
G1 X70.083 Y124.968 E6.87541
G1 X69.813 Y124.106 E6.90546
G1 X69.62 Y123.224 E6.93549
G1 X69.539 Y122.661 E6.95441
G1 X69.476 Y122.116 E6.97265
G1 X69.15 Y119.597 E7.05713
G1 X68.749 Y117.06 E7.14256
G1 X68.286 Y114.581 E7.22644
G1 X68.167 Y113.985 E7.24665
G1 X68.03 Y113.093 E7.27667
G1 X67.974 Y112.277 E7.30387
G1 X67.961 Y111.67 E7.32407
G1 X67.962 Y109.522 E7.39551
G1 X67.973 Y108.836 E7.41833
G1 X68.028 Y107.935 E7.44835
G1 X68.143 Y107.139 E7.4751
G1 X68.322 Y106.179 E7.50758
G1 X68.546 Y105.058 E7.54561
G1 X68.979 Y102.526 E7.63104
G1 X69.332 Y100.031 E7.71485
G1 X69.442 Y99.073 E7.74693
G1 X69.554 Y98.205 E7.77603
G1 X69.709 Y97.315 E7.80608
G1 X69.942 Y96.443 E7.8361
G1 X70.252 Y95.594 E7.86616
G1 X70.635 Y94.776 E7.8962
G1 X71.089 Y93.996 E7.92622
G1 X71.61 Y93.258 E7.95627
G1 X72.195 Y92.57 E7.98631
G1 X72.838 Y91.936 E8.01634
G1 X73.535 Y91.361 E8.04639
G0 F6000 X73.28 Y91.052
G1 F1200 X72.583 Y91.627 E8.07644
G1 X71.914 Y92.285 E8.10765
G1 X71.283 Y93.027 E8.14005
G1 X70.762 Y93.765 E8.1701
G1 X70.289 Y94.575 E8.2013
G1 X69.876 Y95.457 E8.23369
G1 X69.566 Y96.306 E8.26375
G1 X69.315 Y97.246 E8.29611
G1 X69.16 Y98.136 E8.32616
G1 X69.045 Y99.022 E8.35587
G1 X68.936 Y99.975 E8.38777
G1 X68.585 Y102.459 E8.47121
G1 X68.154 Y104.98 E8.55628
G1 X67.93 Y106.101 E8.5943
G1 X67.75 Y107.066 E8.62695
G1 X67.632 Y107.878 E8.65424
G1 X67.574 Y108.812 E8.68537
G1 X67.562 Y109.516 E8.70878
G1 X67.561 Y111.67 E8.78043
G1 X67.574 Y112.286 E8.80092
G1 X67.631 Y113.12 E8.82872
G1 X67.772 Y114.046 E8.85988
G1 X67.893 Y114.654 E8.8805
G1 X68.354 Y117.122 E8.964
G1 X68.753 Y119.648 E9.04906
G1 X69.079 Y122.167 E9.13354
G1 X69.142 Y122.707 E9.15162
G1 X69.229 Y123.31 E9.17189
G1 X69.422 Y124.192 E9.20192
G1 X69.701 Y125.088 E9.23313
G1 X70.058 Y125.955 E9.26431
G1 X70.491 Y126.788 E9.29554
G1 X70.996 Y127.58 E9.32678
G1 X71.569 Y128.323 E9.35799
G1 X72.23 Y129.037 E9.39035
G1 X72.899 Y129.643 E9.42037
G1 X73.648 Y130.211 E9.45164
G1 X74.473 Y130.728 E9.48402
G1 X75.279 Y131.137 E9.51408
G1 X76.149 Y131.487 E9.54527
G1 X77.081 Y131.768 E9.57765
G1 X77.966 Y131.952 E9.60771
G1 X78.898 Y132.061 E9.63892
G1 X79.557 Y132.108 E9.6609
G1 X81.178 Y132.199 E9.7149
G1 X83.731 Y132.416 E9.80011
G1 X86.196 Y132.694 E9.88262
G1 X88.722 Y133.052 E9.96748
G1 X91.206 Y133.477 E10.05129
G1 X93.66 Y133.968 E10.13453
G1 X96.184 Y134.547 E10.22066
G1 X98.608 Y135.175 E10.30395
G1 X101.028 Y135.878 E10.38776
G1 X103.414 Y136.644 E10.47111
G1 X105.583 Y137.409 E10.54761
G1 X106.068 Y137.57 E10.5646
G1 X107.347 Y137.9 E10.60854
G1 X108.24 Y138.032 E10.63856
G1 X109.177 Y138.088 E10.66978
G1 X109.892 Y138.099 E10.69357
G1 X135.761 Y138.099 E11.55397
G1 X136.523 Y138.087 E11.57932
G1 X137.118 Y138.061 E11.59913
G1 X137.457 Y138.036 E11.61043
G1 X138.311 Y137.952 E11.63897
G1 X138.931 Y137.871 E11.65977
G1 X139.865 Y137.675 E11.69151
G1 X140.47 Y137.516 E11.71232
G1 X140.969 Y137.374 E11.72957
G1 X141.507 Y137.205 E11.74833
G1 X142.374 Y136.863 E11.77933
G1 X143.011 Y136.573 E11.80261
G1 X143.5 Y136.335 E11.8207
G1 X144.034 Y136.054 E11.84077
G1 X144.802 Y135.579 E11.8708
G1 X145.338 Y135.21 E11.89244
G1 X145.786 Y134.886 E11.91083
G1 X146.272 Y134.511 E11.93125
G1 X146.946 Y133.911 E11.96126
G1 X147.399 Y133.463 E11.98245
G1 X147.781 Y133.069 E12.00071
G1 X148.196 Y132.616 E12.02114
G1 X148.756 Y131.907 E12.05119
G1 X149.133 Y131.377 E12.07282
G1 X149.449 Y130.91 E12.09158
G1 X149.798 Y130.36 E12.11324
G1 X150.224 Y129.564 E12.14327
G1 X150.501 Y128.979 E12.1648
G1 X150.709 Y128.512 E12.1818
G1 X150.93 Y127.979 E12.20099
G1 X151.225 Y127.095 E12.23199
G1 X151.393 Y126.484 E12.25306
G1 X151.535 Y125.917 E12.27251
G1 X151.665 Y125.33 E12.2925
G1 X151.797 Y124.437 E12.32253
G1 X151.835 Y124.069 E12.33483
G1 X151.9 Y123.227 E12.36292
G1 X151.927 Y122.614 E12.38333
G1 X151.936 Y121.925 E12.40625
G1 X151.936 Y98.054 E13.2002
G1 X151.924 Y97.309 E13.22498
G1 X151.897 Y96.712 E13.24486
G1 X151.846 Y96.077 E13.26605
G1 X151.789 Y95.524 E13.28454
G1 X151.707 Y94.901 E13.30544
G1 X151.515 Y93.988 E13.33647
G1 X151.419 Y93.612 E13.34937
G1 X151.211 Y92.869 E13.37504
G1 X151.037 Y92.314 E13.39438
G1 X150.693 Y91.447 E13.4254
G1 X150.416 Y90.84 E13.4476
G1 X150.175 Y90.344 E13.46594
G1 X149.906 Y89.828 E13.48529
G1 X149.416 Y89.035 E13.5163
G1 X149.047 Y88.499 E13.53794
G1 X148.723 Y88.051 E13.55633
G1 X148.35 Y87.568 E13.57663
G1 X147.75 Y86.893 E13.60666
G1 X147.307 Y86.445 E13.62762
G1 X146.908 Y86.058 E13.64611
G1 X146.453 Y85.641 E13.66663
G1 X145.744 Y85.081 E13.69668
G1 X145.214 Y84.704 E13.71832
G1 X144.747 Y84.388 E13.73707
G1 X144.197 Y84.039 E13.75874
G1 X143.401 Y83.613 E13.78876
G1 X142.832 Y83.344 E13.8097
G1 X142.366 Y83.134 E13.8267
G1 X141.786 Y82.894 E13.84758
G1 X140.9 Y82.602 E13.8786
G1 X140.59 Y82.515 E13.88931
G1 X139.756 Y82.302 E13.91794
G1 X139.167 Y82.172 E13.938
G1 X138.274 Y82.04 E13.96803
G1 X137.906 Y82.002 E13.98033
G1 X137.064 Y81.937 E14.00842
G1 X136.452 Y81.91 E14.0288
G1 X135.635 Y81.9 E14.05597
G1 X109.658 Y81.9 E14.91997
G1 X109.051 Y81.913 E14.94016
G1 X108.217 Y81.97 E14.96797
G1 X107.324 Y82.104 E14.998
G1 X106.412 Y82.324 E15.0292
G1 X105.522 Y82.624 E15.06044
G1 X104.063 Y83.191 E15.1125
G1 X101.673 Y84.076 E15.19727
G1 X99.275 Y84.888 E15.28148
G1 X96.863 Y85.629 E15.3654
G1 X94.372 Y86.32 E15.45138
G1 X91.993 Y86.905 E15.53286
G1 X89.467 Y87.452 E15.61883
G1 X87.017 Y87.911 E15.70173
G1 X84.507 Y88.307 E15.78625
G1 X81.98 Y88.634 E15.871
G1 X79.452 Y88.889 E15.9555
G1 X78.755 Y88.949 E15.97877
G1 X77.52 Y89.13 E16.02029
G1 X76.611 Y89.361 E16.05148
G1 X75.758 Y89.658 E16.08152
G1 X74.871 Y90.059 E16.1139
G1 X74.084 Y90.502 E16.14394
G1 X73.28 Y91.052 E16.17634
G0 F6000 X73.025 Y90.743
G1 F1200 X72.328 Y91.318 E16.20639
G1 X71.609 Y92.026 E16.23995
G1 X70.956 Y92.796 E16.27353
G1 X70.435 Y93.534 E16.30358
G1 X69.927 Y94.405 E16.33711
G1 X69.5 Y95.32 E16.3707
G1 X69.19 Y96.169 E16.40076
G1 X68.921 Y97.177 E16.43546
G1 X68.766 Y98.067 E16.46551
G1 X68.648 Y98.971 E16.49583
G1 X68.54 Y99.919 E16.52756
G1 X68.191 Y102.392 E16.61063
G1 X67.762 Y104.902 E16.69532
G1 X67.538 Y106.023 E16.73334
G1 X67.357 Y106.993 E16.76616
G1 X67.236 Y107.82 E16.79396
G1 X67.175 Y108.787 E16.82619
G1 X67.162 Y109.509 E16.85021
G1 X67.161 Y111.67 E16.92208
G1 X67.174 Y112.294 E16.94284
G1 X67.232 Y113.147 E16.97128
G1 X67.377 Y114.106 E17.00354
G1 X67.5 Y114.727 E17.02459
G1 X67.959 Y117.184 E17.10773
G1 X68.356 Y119.699 E17.19241
G1 X68.682 Y122.218 E17.27689
G1 X68.745 Y122.753 E17.29481
G1 X68.838 Y123.396 E17.31642
G1 X69.031 Y124.278 E17.34645
G1 X69.319 Y125.207 E17.3788
G1 X69.688 Y126.107 E17.41115
G1 X70.136 Y126.972 E17.44355
G1 X70.679 Y127.824 E17.47715
G1 X71.275 Y128.595 E17.50956
G1 X71.936 Y129.309 E17.54193
G1 X72.657 Y129.962 E17.57428
G1 X73.406 Y130.53 E17.60555
G1 X74.292 Y131.085 E17.64032
G1 X75.098 Y131.494 E17.67038
G1 X76 Y131.858 E17.70273
G1 X77 Y132.16 E17.73747
G1 X77.885 Y132.344 E17.76754
G1 X78.852 Y132.458 E17.79992
G1 X79.529 Y132.507 E17.8225
G1 X81.144 Y132.597 E17.8763
G1 X83.697 Y132.815 E17.96152
G1 X86.14 Y133.09 E18.04329
G1 X88.666 Y133.448 E18.12814
G1 X91.132 Y133.87 E18.21136
G1 X93.571 Y134.358 E18.29408
G1 X96.095 Y134.937 E18.38021
G1 X98.496 Y135.559 E18.46271
G1 X100.906 Y136.259 E18.54618
G1 X103.292 Y137.025 E18.62953
G1 X105.45 Y137.786 E18.70563
G1 X105.942 Y137.95 E18.72288
G1 X107.289 Y138.296 E18.76914
G1 X108.182 Y138.428 E18.79916
G1 X109.153 Y138.487 E18.83152
G1 X109.886 Y138.499 E18.8559
G1 X135.767 Y138.499 E19.71671
G1 X136.529 Y138.487 E19.74205
G1 X137.135 Y138.461 E19.76223
G1 X137.486 Y138.435 E19.77393
G1 X138.35 Y138.35 E19.80281
G1 X138.983 Y138.268 E19.82404
G1 X139.967 Y138.062 E19.85748
G1 X140.572 Y137.903 E19.87828
G1 X141.078 Y137.759 E19.89578
G1 X141.627 Y137.587 E19.91491
G1 X142.521 Y137.235 E19.94687
G1 X143.177 Y136.937 E19.97084
G1 X143.675 Y136.695 E19.98925
G1 X144.22 Y136.408 E20.00974
G1 X145.012 Y135.919 E20.0407
G1 X145.565 Y135.539 E20.06301
G1 X146.02 Y135.21 E20.08169
G1 X146.538 Y134.81 E20.10346
G1 X147.212 Y134.21 E20.13347
G1 X147.68 Y133.747 E20.15536
G1 X148.068 Y133.347 E20.1739
G1 X148.51 Y132.864 E20.19568
G1 X149.07 Y132.155 E20.22573
G1 X149.459 Y131.609 E20.24802
G1 X149.78 Y131.134 E20.26709
G1 X150.151 Y130.549 E20.29013
G1 X150.577 Y129.753 E20.32016
G1 X150.863 Y129.15 E20.34236
G1 X151.074 Y128.675 E20.35964
G1 X151.309 Y128.106 E20.38012
G1 X151.611 Y127.201 E20.41185
G1 X151.779 Y126.59 E20.43293
G1 X151.923 Y126.014 E20.45267
G1 X152.056 Y125.416 E20.47305
G1 X152.193 Y124.495 E20.50402
G1 X152.233 Y124.11 E20.51689
G1 X152.299 Y123.258 E20.54532
G1 X152.327 Y122.632 E20.56616
G1 X152.336 Y121.93 E20.58951
G1 X152.336 Y98.048 E21.38383
G1 X152.324 Y97.303 E21.40861
G1 X152.297 Y96.694 E21.42888
G1 X152.245 Y96.045 E21.45054
G1 X152.187 Y95.483 E21.46933
G1 X152.104 Y94.849 E21.4906
G1 X151.903 Y93.889 E21.52322
G1 X151.807 Y93.513 E21.53613
G1 X151.596 Y92.761 E21.5621
G1 X151.419 Y92.194 E21.58186
G1 X151.065 Y91.299 E21.61387
G1 X150.78 Y90.674 E21.63672
G1 X150.535 Y90.169 E21.65539
G1 X150.261 Y89.643 E21.67511
G1 X149.756 Y88.825 E21.70709
G1 X149.376 Y88.272 E21.7294
G1 X149.047 Y87.817 E21.74808
G1 X148.649 Y87.302 E21.76973
G1 X148.049 Y86.627 E21.79977
G1 X147.591 Y86.164 E21.82143
G1 X147.186 Y85.771 E21.8402
G1 X146.701 Y85.327 E21.86207
G1 X145.992 Y84.767 E21.89212
G1 X145.446 Y84.378 E21.91441
G1 X144.971 Y84.057 E21.93348
G1 X144.386 Y83.686 E21.95652
G1 X143.59 Y83.26 E21.98655
G1 X143.003 Y82.982 E22.00815
G1 X142.53 Y82.769 E22.02541
G1 X141.939 Y82.524 E22.04668
G1 X141.025 Y82.222 E22.0787
G1 X140.698 Y82.13 E22.09
G1 X139.855 Y81.914 E22.11894
G1 X139.253 Y81.781 E22.13945
G1 X138.332 Y81.644 E22.17042
G1 X137.947 Y81.604 E22.18329
G1 X137.095 Y81.538 E22.21171
G1 X136.47 Y81.51 E22.23252
G1 X135.64 Y81.5 E22.26013
G1 X109.649 Y81.5 E23.1246
G1 X109.042 Y81.513 E23.14479
G1 X108.158 Y81.574 E23.17426
G1 X107.265 Y81.708 E23.20429
G1 X106.318 Y81.935 E23.23668
G1 X105.394 Y82.245 E23.2691
G1 X103.918 Y82.818 E23.32176
G1 X101.545 Y83.697 E23.40593
G1 X99.147 Y84.509 E23.49013
G1 X96.756 Y85.244 E23.57333
G1 X94.276 Y85.932 E23.65893
G1 X91.908 Y86.514 E23.74004
G1 X89.38 Y87.061 E23.82606
G1 X86.947 Y87.517 E23.90839
G1 X84.456 Y87.91 E23.99227
G1 X81.929 Y88.237 E24.07702
G1 X79.418 Y88.49 E24.16096
G1 X78.721 Y88.55 E24.18423
G1 X77.421 Y88.742 E24.22793
G1 X76.512 Y88.973 E24.25913
G1 X75.626 Y89.28 E24.29032
G1 X74.675 Y89.71 E24.32503
G1 X73.888 Y90.153 E24.35507
G1 X73.025 Y90.743 E24.38984
G1 F1500 E17.88984
G0 F6000 X79.861 Y99.7
G1 F1500 E24.38984
G1 F1200 X84.464 Y99.7 E24.54293
G1 X84.464 Y99.9 E24.54959
G1 X82.228 Y99.9 E24.62396
G1 X82.109 Y99.939 E24.62812
G1 X82.028 Y100.1 E24.63411
G1 X82.029 Y120.9 E25.32593
G1 X82.068 Y121.019 E25.33009
G1 X82.229 Y121.1 E25.33609
G1 X84.465 Y121.1 E25.41045
G1 X84.465 Y121.3 E25.41711
G1 X79.862 Y121.3 E25.5702
G1 X79.859 Y114.15 E25.80801
G1 X79.857 Y114.125 E25.80885
G1 X79.806 Y113.721 E25.82239
G1 X79.802 Y113.698 E25.82317
G1 X79.699 Y113.283 E25.83739
G1 X79.687 Y113.248 E25.83862
G1 X79.488 Y112.812 E25.85456
G1 X79.468 Y112.777 E25.8559
G1 X79.182 Y112.384 E25.87207
G1 X79.157 Y112.356 E25.87332
G1 X78.861 Y112.078 E25.88682
