;FLAVOR:Marlin
;TIME:18960
;Filament used: 36.6448m
;Layer height: 0.32
;MINX:34.91
;MINY:35.047
;MINZ:0.32
;MAXX:185.09
;MAXY:185.049
;MAXZ:89.92
;TARGET_MACHINE.NAME:Creality Ender-3 Pro
;Generated with Cura_SteamEngine 5.7.1
M82 ;absolute extrusion mode
; Ender 3 Custom Start G-code
G92 E0 ; Reset Extruder
G28 ; Home all axes
G1 Z5.0 F3000 ; Move Z Axis up a bit during heating to not damage bed
M104 S175 ; Start heating up the nozzle most of the way
M190 S60 ; Start heating the bed, wait until target temperature reached
M109 S200 ; Finish heating the nozzle
G1 Z2.0 F3000 ; Move Z Axis up little to prevent scratching of Heat Bed
G1 X0.1 Y20 Z0.3 F5000.0 ; Move to start position
G1 X0.1 Y200.0 Z0.3 F1500.0 E15 ; Draw the first line
G1 X0.4 Y200.0 Z0.3 F5000.0 ; Move to side a little
G1 X0.4 Y20 Z0.3 F1500.0 E30 ; Draw the second line
G92 E0 ; Reset Extruder
G1 Z2.0 F3000 ; Move Z Axis up little to prevent scratching of Heat Bed
G1 X5 Y20 Z0.3 F5000.0 ; Move over to prevent blob squish
G92 E0
G92 E0
G1 F1500 E-6.5
;LAYER_COUNT:281
;LAYER:0
M107
G0 F6000 X55.748 Y58.134 Z0.32
;TYPE:SKIRT
G1 F1500 E0
G1 F1200 X61.449 Y52.768 E0.83327
G1 X68.219 Y47.655 E1.73623
G1 X74.734 Y43.753 E2.54449
G1 X82.441 Y40.2 E3.44774
G1 X90.315 Y37.584 E4.33083
G1 X97.669 Y35.977 E5.132
G1 X106.312 Y35.05 E6.05717
G1 X113.646 Y35.047 E6.83775
G1 X122.567 Y36.019 E7.79285
G1 X130.07 Y37.691 E8.611
G1 X138.182 Y40.447 E9.52285
G1 X145.084 Y43.658 E10.33305
G1 X152.16 Y47.913 E11.21184
G1 X158.931 Y53.093 E12.1192
G1 X164.329 Y58.214 E12.91112
G1 X170.008 Y64.913 E13.84584
G1 X174.553 Y71.687 E14.71406
G1 X177.995 Y78.183 E15.4965
G1 X181.279 Y86.425 E16.44079
G1 X183.294 Y93.717 E17.24598
G1 X184.672 Y102.14 E18.15438
G1 X185.09 Y110.466 E19.04165
G1 X184.69 Y117.808 E19.82423
G1 X183.25 Y126.57 E20.76931
G1 X181.021 Y134.43 E21.63885
G1 X177.992 Y141.919 E22.49865
G1 X174.268 Y148.885 E23.33936
G1 X169.952 Y155.263 E24.159
G1 X164.25 Y161.967 E25.09571
G1 X158.549 Y167.333 E25.92898
G1 X151.793 Y172.437 E26.83017
G1 X145.342 Y176.305 E27.63073
G1 X137.476 Y179.931 E28.5526
G1 X129.685 Y182.515 E29.42623
G1 X122.332 Y184.122 E30.2273
G1 X113.676 Y185.049 E31.15385
G1 X105.505 Y185.004 E32.02352
G1 X97.433 Y184.08 E32.88825
G1 X89.917 Y182.404 E33.70784
G1 X81.818 Y179.652 E34.61825
G1 X74.917 Y176.442 E35.42831
G1 X67.839 Y172.185 E36.30739
G1 X61.069 Y167.006 E37.2146
G1 X55.671 Y161.885 E38.00652
G1 X49.992 Y155.185 E38.94132
G1 X45.446 Y148.41 E39.80968
G1 X42.004 Y141.914 E40.59213
G1 X38.721 Y133.675 E41.53608
G1 X36.725 Y126.467 E42.33211
G1 X35.319 Y117.873 E43.25895
G1 X34.91 Y109.632 E44.13714
G1 X35.31 Y102.291 E44.91962
G1 X36.75 Y93.529 E45.86469
G1 X38.979 Y85.669 E46.73424
G1 X42.008 Y78.18 E47.59404
G1 X45.732 Y71.214 E48.43474
G1 X50.048 Y64.836 E49.25439
G1 X55.748 Y58.134 E50.19079
G0 F6000 X56.296 Y58.717
G1 F1200 X61.997 Y53.351 E51.02407
G1 X68.63 Y48.341 E51.90878
G1 X75.069 Y44.48 E52.70786
G1 X82.776 Y40.927 E53.61111
G1 X90.486 Y38.366 E54.47579
G1 X97.84 Y36.759 E55.27696
G1 X106.312 Y35.85 E56.18383
G1 X113.646 Y35.847 E56.96441
G1 X122.393 Y36.8 E57.90088
G1 X129.896 Y38.472 E58.71903
G1 X137.845 Y41.173 E59.61257
G1 X144.672 Y44.344 E60.41374
G1 X151.748 Y48.599 E61.29253
G1 X158.38 Y53.673 E62.18128
G1 X163.778 Y58.794 E62.97321
G1 X169.344 Y65.359 E63.88927
G1 X173.846 Y72.062 E64.74866
G1 X177.288 Y78.558 E65.5311
G1 X180.508 Y86.638 E66.45685
G1 X182.504 Y93.846 E67.25289
G1 X183.882 Y102.269 E68.16128
G1 X184.291 Y110.422 E69.03012
G1 X183.891 Y117.764 E69.8127
G1 X182.48 Y126.352 E70.739
G1 X180.279 Y134.13 E71.59934
G1 X177.286 Y141.542 E72.45011
G1 X173.605 Y148.437 E73.28199
G1 X169.289 Y154.815 E74.10163
G1 X163.702 Y161.384 E75.01946
G1 X158.001 Y166.75 E75.85274
G1 X151.381 Y171.751 E76.73577
G1 X145.007 Y175.578 E77.52706
G1 X137.141 Y179.204 E78.44892
G1 X129.514 Y181.733 E79.30414
G1 X122.161 Y183.34 E80.10521
G1 X113.68 Y184.249 E81.01304
G1 X105.596 Y184.209 E81.87345
G1 X97.607 Y183.299 E82.72923
G1 X90.091 Y181.623 E83.54883
G1 X82.155 Y178.926 E84.44092
G1 X75.329 Y175.756 E85.24195
G1 X68.251 Y171.499 E86.12103
G1 X61.62 Y166.426 E87.00963
G1 X56.222 Y161.305 E87.80156
G1 X50.656 Y154.739 E88.7177
G1 X46.153 Y148.035 E89.57724
G1 X42.711 Y141.539 E90.35968
G1 X39.492 Y133.461 E91.28519
G1 X37.515 Y126.338 E92.07197
G1 X36.109 Y117.744 E92.99881
G1 X35.709 Y109.676 E93.85856
G1 X36.109 Y102.335 E94.64104
G1 X37.52 Y93.747 E95.56734
G1 X39.721 Y85.969 E96.42768
G1 X42.714 Y78.557 E97.27844
G1 X46.395 Y71.662 E98.11032
G1 X50.711 Y65.284 E98.92997
G1 X56.296 Y58.717 E99.8475
G0 F6000 X56.844 Y59.3
G1 F1200 X62.545 Y53.934 E100.68077
G1 X69.042 Y49.027 E101.54733
G1 X75.404 Y45.207 E102.33714
G1 X83.111 Y41.654 E103.24038
G1 X90.657 Y39.148 E104.08665
G1 X98.011 Y37.541 E104.88783
G1 X106.312 Y36.65 E105.7764
G1 X113.646 Y36.647 E106.55697
G1 X122.219 Y37.581 E107.47482
G1 X129.722 Y39.253 E108.29297
G1 X137.508 Y41.899 E109.1682
G1 X144.26 Y45.03 E109.96033
G1 X151.336 Y49.285 E110.83912
G1 X157.829 Y54.253 E111.70927
G1 X163.227 Y59.374 E112.50119
G1 X168.68 Y65.805 E113.3986
G1 X173.139 Y72.437 E114.24917
G1 X176.581 Y78.933 E115.03161
G1 X179.737 Y86.852 E115.93892
G1 X181.714 Y93.975 E116.72569
G1 X183.092 Y102.398 E117.63409
G1 X183.492 Y110.378 E118.48449
G1 X183.092 Y117.72 E119.26708
G1 X181.71 Y126.135 E120.1747
G1 X179.537 Y133.831 E121.02583
G1 X176.58 Y141.166 E121.86756
G1 X172.942 Y147.989 E122.69053
G1 X168.626 Y154.367 E123.51018
G1 X163.154 Y160.801 E124.40913
G1 X157.453 Y166.167 E125.2424
G1 X150.969 Y171.065 E126.10728
G1 X144.595 Y174.892 E126.89857
G1 X136.889 Y178.445 E127.80171
G1 X129.343 Y180.951 E128.64798
G1 X121.99 Y182.558 E129.44905
G1 X113.684 Y183.449 E130.33815
G1 X105.686 Y183.414 E131.18941
G1 X97.781 Y182.518 E132.03614
G1 X90.265 Y180.842 E132.85574
G1 X82.492 Y178.2 E133.72952
G1 X75.666 Y175.03 E134.53055
G1 X68.664 Y170.814 E135.40045
G1 X62.171 Y165.846 E136.2706
G1 X56.773 Y160.725 E137.06252
G1 X51.32 Y154.293 E137.96001
G1 X46.86 Y147.66 E138.81072
G1 X43.418 Y141.164 E139.59317
G1 X40.263 Y133.247 E140.50024
G1 X38.286 Y126.124 E141.28701
G1 X36.908 Y117.704 E142.1951
G1 X36.508 Y109.72 E143.04592
G1 X36.908 Y102.379 E143.8284
G1 X38.29 Y93.964 E144.73602
G1 X40.463 Y86.268 E145.58715
G1 X43.42 Y78.933 E146.42889
G1 X47.058 Y72.11 E147.25185
G1 X51.374 Y65.732 E148.0715
G1 X56.844 Y59.3 E148.97015
G0 F6000 X57.393 Y59.882
G1 F1200 X63.028 Y54.572 E149.79423
G1 X69.454 Y49.713 E150.65167
G1 X75.816 Y45.893 E151.44148
G1 X83.363 Y42.413 E152.32601
G1 X90.828 Y39.93 E153.16333
G1 X98.182 Y38.323 E153.9645
G1 X106.312 Y37.45 E154.83477
G1 X113.646 Y37.447 E155.61534
G1 X122.045 Y38.362 E156.51456
G1 X129.548 Y40.034 E157.33271
G1 X137.171 Y42.625 E158.18963
G1 X143.923 Y45.756 E158.98177
G1 X150.923 Y49.97 E159.85138
G1 X157.278 Y54.833 E160.70307
G1 X162.676 Y59.954 E161.49499
G1 X168.016 Y66.252 E162.37382
G1 X172.432 Y72.812 E163.21548
G1 X175.874 Y79.308 E163.99792
G1 X178.966 Y87.066 E164.88679
G1 X180.943 Y94.189 E165.67356
G1 X182.293 Y102.438 E166.56321
G1 X182.693 Y110.334 E167.40467
G1 X182.293 Y117.676 E168.18726
G1 X180.94 Y125.918 E169.07622
G1 X178.795 Y133.532 E169.91814
G1 X175.874 Y140.79 E170.75084
G1 X172.279 Y147.541 E171.56489
G1 X167.963 Y153.919 E172.38453
G1 X162.606 Y160.218 E173.26461
G1 X156.905 Y165.584 E174.09789
G1 X150.557 Y170.379 E174.9446
G1 X144.183 Y174.206 E175.73589
G1 X136.637 Y177.686 E176.62032
G1 X129.172 Y180.169 E177.45764
G1 X121.819 Y181.776 E178.25871
G1 X113.687 Y182.649 E179.12919
G1 X105.776 Y182.619 E179.97118
G1 X97.955 Y181.737 E180.80887
G1 X90.439 Y180.061 E181.62846
G1 X82.829 Y177.474 E182.48393
G1 X76.003 Y174.304 E183.28496
G1 X69.077 Y170.129 E184.14568
G1 X62.722 Y165.266 E184.99737
G1 X57.324 Y160.145 E185.7893
G1 X51.984 Y153.846 E186.66821
G1 X47.567 Y147.285 E187.51001
G1 X44.125 Y140.789 E188.29246
G1 X41.034 Y133.033 E189.18109
G1 X39.057 Y125.91 E189.96786
G1 X37.707 Y117.664 E190.85719
G1 X37.307 Y109.764 E191.69908
G1 X37.707 Y102.423 E192.48156
G1 X39.06 Y94.181 E193.37052
G1 X41.205 Y86.567 E194.21244
G1 X44.126 Y79.309 E195.04514
G1 X47.721 Y72.558 E195.85919
G1 X52.037 Y66.18 E196.67883
G1 X57.393 Y59.882 E197.55876
G0 F6000 X57.942 Y60.464
G1 F1200 X63.577 Y55.154 E198.38284
G1 X69.866 Y50.399 E199.22198
G1 X76.228 Y46.579 E200.01179
G1 X83.616 Y43.172 E200.87769
G1 X90.999 Y40.712 E201.70596
G1 X98.353 Y39.105 E202.50713
G1 X106.312 Y38.25 E203.3591
G1 X113.646 Y38.247 E204.13967
G1 X121.871 Y39.143 E205.02026
G1 X129.374 Y40.815 E205.83841
G1 X136.834 Y43.351 E206.67702
G1 X143.586 Y46.482 E207.46916
G1 X150.51 Y50.655 E208.32959
G1 X156.727 Y55.413 E209.16282
G1 X162.125 Y60.534 E209.95475
G1 X167.353 Y66.699 E210.81507
G1 X171.725 Y73.187 E211.64775
G1 X175.167 Y79.683 E212.4302
G1 X178.195 Y87.28 E213.30062
G1 X180.172 Y94.403 E214.0874
G1 X181.494 Y102.479 E214.95839
G1 X181.894 Y110.29 E215.79082
G1 X181.494 Y117.632 E216.57341
G1 X180.17 Y125.702 E217.4438
G1 X178.053 Y133.234 E218.27651
G1 X175.168 Y140.414 E219.10008
G1 X171.616 Y147.093 E219.90522
G1 X167.3 Y153.471 E220.72486
G1 X162.058 Y159.635 E221.58607
G1 X156.357 Y165.001 E222.41934
G1 X150.145 Y169.693 E223.2479
G1 X143.771 Y173.52 E224.03919
G1 X136.384 Y176.927 E224.905
G1 X129.001 Y179.387 E225.73326
G1 X121.648 Y180.994 E226.53433
G1 X113.69 Y181.849 E227.38619
G1 X105.865 Y181.824 E228.21903
G1 X98.129 Y180.956 E229.04756
G1 X90.613 Y179.28 E229.86715
G1 X83.166 Y176.748 E230.70432
G1 X76.34 Y173.578 E231.50534
G1 X69.49 Y169.444 E232.35689
G1 X63.273 Y164.686 E233.19012
G1 X57.875 Y159.565 E233.98205
G1 X52.647 Y153.399 E234.84245
G1 X48.274 Y146.91 E235.67528
G1 X44.832 Y140.414 E236.45772
G1 X41.805 Y132.819 E237.32791
G1 X39.828 Y125.696 E238.11469
G1 X38.506 Y117.623 E238.98537
G1 X38.106 Y109.808 E239.81822
G1 X38.506 Y102.467 E240.6007
G1 X39.83 Y94.397 E241.4711
G1 X41.947 Y86.865 E242.30381
G1 X44.832 Y79.685 E243.12737
G1 X48.384 Y73.006 E243.93251
G1 X52.7 Y66.628 E244.75216
G1 X57.942 Y60.464 E245.61336
G0 F6000 X58.491 Y61.046
G1 F1200 X64.126 Y55.736 E246.43744
G1 X70.278 Y51.085 E247.25827
G1 X76.64 Y47.265 E248.04808
G1 X83.869 Y43.931 E248.89536
G1 X91.17 Y41.494 E249.71457
G1 X98.524 Y39.887 E250.51575
G1 X106.312 Y39.05 E251.34941
G1 X113.646 Y39.047 E252.12999
G1 X121.697 Y39.924 E252.99195
G1 X129.2 Y41.596 E253.8101
G1 X136.497 Y44.077 E254.6304
G1 X143.249 Y47.208 E255.42253
G1 X150.024 Y51.291 E256.26444
G1 X156.176 Y55.993 E257.08856
G1 X161.574 Y61.114 E257.88048
G1 X166.69 Y67.146 E258.7223
G1 X171.018 Y73.562 E259.54601
G1 X174.46 Y80.058 E260.32845
G1 X177.424 Y87.494 E261.18044
G1 X179.401 Y94.617 E261.96722
G1 X180.695 Y102.52 E262.81955
G1 X181.095 Y110.246 E263.64295
G1 X180.695 Y117.588 E264.42554
G1 X179.4 Y125.486 E265.27737
G1 X177.311 Y132.936 E266.10087
G1 X174.461 Y140.039 E266.91544
G1 X170.953 Y146.645 E267.71152
G1 X166.637 Y153.023 E268.53117
G1 X161.509 Y159.053 E269.37365
G1 X155.874 Y164.363 E270.19772
G1 X149.733 Y169.007 E271.01717
G1 X143.359 Y172.834 E271.80846
G1 X136.131 Y176.168 E272.65565
G1 X128.83 Y178.605 E273.47486
G1 X121.477 Y180.212 E274.27593
G1 X113.692 Y181.049 E275.10928
G1 X105.954 Y181.029 E275.93285
G1 X98.303 Y180.175 E276.75223
G1 X90.787 Y178.499 E277.57182
G1 X83.503 Y176.022 E278.39067
G1 X76.677 Y172.852 E279.1917
G1 X69.976 Y168.808 E280.02472
G1 X63.824 Y164.106 E280.84884
G1 X58.426 Y158.985 E281.64076
G1 X53.31 Y152.952 E282.48266
G1 X48.981 Y146.535 E283.30652
G1 X45.539 Y140.039 E284.08896
G1 X42.576 Y132.605 E284.94071
G1 X40.599 Y125.482 E285.72749
G1 X39.305 Y117.582 E286.57951
G1 X38.905 Y109.852 E287.40333
G1 X39.305 Y102.511 E288.18581
G1 X40.6 Y94.613 E289.03764
G1 X42.689 Y87.163 E289.86114
G1 X45.539 Y80.06 E290.67572
G1 X49.047 Y73.454 E291.4718
G1 X53.363 Y67.076 E292.29144
G1 X58.491 Y61.046 E293.13392
G0 F6000 X59.04 Y61.628
G1 F1200 X64.609 Y56.374 E293.9488
G1 X70.69 Y51.771 E294.76052
G1 X77.052 Y47.951 E295.55033
G1 X84.123 Y44.69 E296.37909
G1 X91.341 Y42.276 E297.18915
G1 X98.695 Y40.669 E297.99032
G1 X106.312 Y39.85 E298.80569
G1 X113.646 Y39.847 E299.58626
G1 X121.523 Y40.705 E300.42959
G1 X128.943 Y42.354 E301.23859
G1 X136.161 Y44.803 E302.04983
G1 X142.836 Y47.893 E302.8327
G1 X149.539 Y51.927 E303.66534
G1 X155.625 Y56.573 E304.48026
G1 X161.023 Y61.694 E305.27219
G1 X166.027 Y67.594 E306.09558
G1 X170.311 Y73.937 E306.91023
G1 X173.753 Y80.433 E307.69267
G1 X176.653 Y87.708 E308.52622
G1 X178.63 Y94.831 E309.313
G1 X179.896 Y102.562 E310.14679
G1 X180.296 Y110.202 E310.96105
G1 X179.896 Y117.544 E311.74363
G1 X178.63 Y125.27 E312.5769
G1 X176.568 Y132.639 E313.39132
G1 X173.754 Y139.664 E314.19677
G1 X170.29 Y146.197 E314.98379
G1 X165.974 Y152.575 E315.80343
G1 X160.96 Y158.471 E316.62719
G1 X155.391 Y163.725 E317.44206
G1 X149.321 Y168.321 E318.2524
G1 X142.947 Y172.148 E319.04369
G1 X135.877 Y175.409 E319.87235
G1 X128.659 Y177.823 E320.68241
G1 X121.306 Y179.43 E321.48348
G1 X113.694 Y180.249 E322.29832
G1 X106.042 Y180.234 E323.11274
G1 X98.477 Y179.394 E323.92285
G1 X91.044 Y177.741 E324.73329
G1 X83.839 Y175.296 E325.54308
G1 X77.09 Y172.167 E326.33484
G1 X70.461 Y168.172 E327.1586
G1 X64.375 Y163.526 E327.97352
G1 X58.977 Y158.405 E328.76545
G1 X53.973 Y152.504 E329.58892
G1 X49.688 Y146.16 E330.40372
G1 X46.246 Y139.664 E331.18616
G1 X43.347 Y132.391 E332.01947
G1 X41.37 Y125.268 E332.80625
G1 X40.104 Y117.54 E333.63972
G1 X39.704 Y109.896 E334.4544
G1 X40.104 Y102.555 E335.23688
G1 X41.37 Y94.829 E336.07015
G1 X43.432 Y87.46 E336.88458
G1 X46.246 Y80.435 E337.69002
G1 X49.71 Y73.902 E338.47704
G1 X54.026 Y67.524 E339.29668
G1 X59.04 Y61.628 E340.12044
G0 F6000 X59.589 Y62.21
G1 F1200 X65.092 Y57.012 E340.92611
G1 X71.102 Y52.457 E341.72873
G1 X77.464 Y48.637 E342.51854
G1 X84.377 Y45.449 E343.32877
G1 X91.512 Y43.058 E344.12967
G1 X98.866 Y41.451 E344.93085
G1 X106.312 Y40.65 E345.72792
G1 X113.646 Y40.647 E346.50849
G1 X121.35 Y41.486 E347.3333
G1 X128.686 Y43.112 E348.13303
G1 X135.825 Y45.529 E348.93522
G1 X142.5 Y48.619 E349.71809
G1 X149.054 Y52.563 E350.53221
G1 X155.074 Y57.153 E351.33793
G1 X160.472 Y62.274 E352.12985
G1 X165.364 Y68.042 E352.93482
G1 X169.604 Y74.312 E353.74041
G1 X173.046 Y80.808 E354.52285
G1 X175.882 Y87.922 E355.33796
G1 X177.859 Y95.045 E356.12474
G1 X179.097 Y102.604 E356.93998
G1 X179.497 Y110.158 E357.7451
G1 X179.097 Y117.5 E358.52768
G1 X177.859 Y125.055 E359.3425
G1 X175.825 Y132.342 E360.14772
G1 X173.047 Y139.289 E360.94404
G1 X169.583 Y145.822 E361.73106
G1 X165.312 Y152.126 E362.54149
G1 X160.411 Y157.889 E363.34668
G1 X154.908 Y163.087 E364.15235
G1 X148.909 Y167.635 E364.95358
G1 X142.535 Y171.462 E365.74487
G1 X135.623 Y174.65 E366.55501
G1 X128.488 Y177.041 E367.35591
G1 X121.135 Y178.648 E368.15698
G1 X113.695 Y179.449 E368.95341
G1 X106.13 Y179.439 E369.75858
G1 X98.65 Y178.613 E370.55953
G1 X91.301 Y176.983 E371.36071
G1 X84.175 Y174.57 E372.16145
G1 X77.503 Y171.482 E372.94394
G1 X70.946 Y167.536 E373.75844
G1 X64.926 Y162.946 E374.56416
G1 X59.528 Y157.825 E375.35609
G1 X54.636 Y152.056 E376.16113
G1 X50.395 Y145.785 E376.96687
G1 X46.953 Y139.289 E377.74932
G1 X44.118 Y132.177 E378.56419
G1 X42.141 Y125.054 E379.35096
G1 X40.903 Y117.498 E380.16589
G1 X40.503 Y109.94 E380.97143
G1 X40.903 Y102.599 E381.75391
G1 X42.141 Y95.044 E382.56873
G1 X44.175 Y87.757 E383.37395
G1 X46.953 Y80.81 E384.17026
G1 X50.417 Y74.277 E384.95728
G1 X54.688 Y67.973 E385.76772
G1 X59.589 Y62.21 E386.5729
G1 F1500 E380.0729
G0 F6000 X60.689 Y63.372
G1 F1500 E386.5729
G1 F1200 X66.06 Y58.286 E387.36018
G1 X71.926 Y53.829 E388.14428
G1 X78.212 Y50.049 E388.92497
G1 X84.887 Y46.965 E389.70756
G1 X91.855 Y44.62 E390.49006
G1 X99.038 Y43.041 E391.27281
G1 X106.312 Y42.25 E392.05157
G1 X113.646 Y42.247 E392.83214
G1 X121.005 Y43.048 E393.62
G1 X128.174 Y44.628 E394.40133
G1 X135.153 Y46.981 E395.1852
G1 X141.828 Y50.071 E395.96807
G1 X148.085 Y53.836 E396.74528
G1 X153.973 Y58.314 E397.5326
G1 X159.311 Y63.372 E398.31528
